X:332
T: Vor Liebchens Tr (72a), S. 206,
N: T0221
O: Luxemburg
S: Singendes Volk, Esch-Alzette 1937 posth.]
N: Monnerich, hhh Dominik Mller, 1.6.1915
R: Liebeslieder]
M: 4/4
L: 1/8
K: G
D2 | G3AB2c2 | d3ed2
d2 | c3Bc2d2 | B4z2
de | d2c2A2c2 | B2d2B2
d2 | d2c2A2c2 | B2d2B2
d2 | e3dc2d2 | B4z2

